svgs/sharp-light/window-frame-open.svg

<svg xmlns="http://www.w3.org/2000/svg" viewBox="0 0 512 512"><!--! Font Awesome Pro 6.6.0 by @fontawesome - https://fontawesome.com License - https://fontawesome.com/license (Commercial License) Copyright 2024 Fonticons, Inc. --><path d="M272 32l176 0 0 224-176 0 0-224zM480 288l0-32 0-224 0-32L448 0 64 0 32 0l0 32 0 224 0 32 32 0 384 0 32 0zM64 256L64 32l176 0 0 224L64 256zM16 480L0 480l0 32 16 0 32 0 416 0 32 0 16 0 0-32-16 0-16 0 0-160-32 0 0 160L64 480l0-160-32 0 0 160-16 0z"/></svg>

<svg xmlns="http://www.w3.org/2000/svg" viewBox="0 0 512 512"><!--! Font Awesome Pro 6.4.0 by @fontawesome - https://fontawesome.com License - https://fontawesome.com/license (Commercial License) Copyright 2023 Fonticons, Inc. --><path d="M272 32H448V256H272V32zM480 288V256 32 0H448 64 32V32 256v32H64 448h32zM64 256V32H240V256H64zM16 480H0v32H16 48 464h32 16V480H496 480V320H448V480H64V320H32V480H16z"/></svg>
